packages/stems/src/assets/icons/iconTrending.svg

<?xml version="1.0" encoding="UTF-8"?>
<svg width="24px" height="24px" viewBox="0 0 24 24" version="1.1" xmlns="http://www.w3.org/2000/svg" xmlns:xlink="http://www.w3.org/1999/xlink">
    <title>iconTrending</title>
    <g id="Symbols" stroke="none" stroke-width="1" fill="none" fill-rule="evenodd">
        <g id="iconTrending">
            <rect id="bound" x="0" y="0" width="24" height="24"></rect>
            <path d="M22.5123522,4 L15.5699955,4 C14.2435095,4 13.5802665,5.60030653 14.516245,6.53330377 L16.5555622,8.56612557 L12.0926187,13.0704632 L8.64623452,9.63505618 C8.35490349,9.34465307 7.89001353,9.34465307 7.5986825,9.63505618 L0.222428594,16.9136704 C-0.0689024428,17.1978947 -0.0751009755,17.6674828 0.210031528,17.9578859 L1.97661335,19.77445 C2.26794438,20.0710319 2.7452314,20.0772107 3.03656244,19.7806288 L8.12555778,14.7078425 L11.5657434,18.1370708 C11.8570745,18.4274739 12.3281629,18.4274739 12.619494,18.1370708 L19.3882917,11.3898325 L21.4586016,13.4535482 C22.39458,14.3865454 24,13.7254149 24,12.403154 L24,5.48290952 C24,4.6611305 23.336757,4 22.5123522,4 Z" id="Path" fill="#858199"></path>
        </g>
    </g>
</svg>

<svg width="24" height="24" xmlns="http://www.w3.org/2000/svg"><g fill="none" fill-rule="evenodd"><path d="M0 0h24v24H0z"/><path d="M22.512 4H15.57c-1.326 0-1.99 1.6-1.054 2.533l2.04 2.033-4.463 4.504-3.447-3.435a.739.739 0 00-1.047 0L.222 16.914a.739.739 0 00-.012 1.044l1.767 1.816a.743.743 0 001.06.007l5.089-5.073 3.44 3.43c.291.29.762.29 1.053 0l6.77-6.748 2.07 2.064c.936.933 2.541.271 2.541-1.05V5.482C24 4.66 23.337 4 22.512 4z" fill="#858199"/></g></svg>
